;FLAVOR:Marlin
;TIME:25201
;Filament used: 16.4379m
;Layer height: 0.2
;MINX:81.941
;MINY:65.335
;MINZ:0.24
;MAXX:151.89
;MAXY:169.664
;MAXZ:34.09
;Generated with Cura_SteamEngine master
M140 S60
M105
M190 S60
M104 S200
M105
M109 S200
M82 ;absolute extrusion mode
M201 X500.00 Y500.00 Z100.00 E5000.00 ;Setup machine max acceleration
M203 X500.00 Y500.00 Z10.00 E50.00 ;Setup machine max feedrate
M204 P500.00 R1000.00 T500.00 ;Setup Print/Retract/Travel acceleration
M205 X8.00 Y8.00 Z0.40 E5.00 ;Setup Jerk
M220 S100 ;Reset Feedrate
M221 S100 ;Reset Flowrate

G28 ;Home

G92 E0 ;Reset Extruder
G1 Z2.0 F3000 ;Move Z Axis up
G1 X10.1 Y20 Z0.28 F5000.0 ;Move to start position
G1 X10.1 Y200.0 Z0.28 F1500.0 E15 ;Draw the first line
G1 X10.4 Y200.0 Z0.28 F5000.0 ;Move to side a little
G1 X10.4 Y20 Z0.28 F1500.0 E30 ;Draw the second line
G92 E0 ;Reset Extruder
G1 Z2.0 F3000 ;Move Z Axis up

G92 E0
G92 E0
G1 F1500 E-6.5
;LAYER_COUNT:165
;LAYER:-6
M107
G0 F9000 X86 Y72.126 Z0.24
;TYPE:SUPPORT-INTERFACE
G1 F1500 E0
G1 F1125 X86.577 Y71.434 E0.07192
G1 X86.673 Y71.326 E0.08346
G1 X87.155 Y70.814 E0.13959
G1 X87.312 Y70.658 E0.15725
G1 X88.008 Y70.012 E0.23306
G1 X88.147 Y69.893 E0.24766
G1 X88.838 Y69.339 E0.31836
G1 X88.977 Y69.235 E0.33222
G1 X89.692 Y68.743 E0.4015
G1 X89.876 Y68.626 E0.4189
G1 X90.632 Y68.183 E0.48885
G1 X90.774 Y68.106 E0.50174
G1 X91.606 Y67.697 E0.57575
G1 X91.719 Y67.647 E0.58561
G1 X92.569 Y67.304 E0.65878
G1 X92.742 Y67.242 E0.67345
G1 X93.58 Y66.973 E0.7437
G1 X93.744 Y66.927 E0.7573
G1 X94.616 Y66.715 E0.82893
G1 X94.778 Y66.682 E0.84213
G1 X95.671 Y66.534 E0.91439
G1 X95.848 Y66.511 E0.92863
G1 X96.742 Y66.428 E1.0003
G1 X96.884 Y66.421 E1.01165
G1 X97.625 Y66.4 E1.07083
G1 X132.386 Y66.401 E3.8456
G1 X133.387 Y66.437 E3.92555
G1 X133.51 Y66.446 E3.9354
G1 X134.427 Y66.548 E4.00905
G1 X134.602 Y66.573 E4.02316
G1 X135.491 Y66.737 E4.09532
G1 X135.614 Y66.765 E4.10539
G1 X136.508 Y66.999 E4.17916
G1 X136.671 Y67.048 E4.19274
G1 X137.513 Y67.334 E4.26373
G1 X137.679 Y67.398 E4.27793
G1 X138.482 Y67.739 E4.34757
G1 X138.671 Y67.827 E4.36421
G1 X139.465 Y68.235 E4.43547
G1 X139.582 Y68.302 E4.44623
G1 X140.361 Y68.776 E4.51902
G1 X140.512 Y68.876 E4.53348
G1 X141.226 Y69.387 E4.60357
G1 X141.374 Y69.5 E4.61843
G1 X142.066 Y70.077 E4.69035
G1 X142.174 Y70.173 E4.70189
G1 X142.686 Y70.655 E4.75802
G1 X142.806 Y70.775 E4.77156
G1 X143.488 Y71.508 E4.85148
G1 X143.607 Y71.647 E4.86609
G1 X144.161 Y72.338 E4.93679
G1 X144.265 Y72.477 E4.95065
G1 X144.757 Y73.192 E5.01993
G1 X144.874 Y73.376 E5.03733
G1 X145.314 Y74.125 E5.10667
G1 X145.387 Y74.259 E5.11885
G1 X145.792 Y75.082 E5.19207
G1 X145.853 Y75.219 E5.20404
G1 X146.195 Y76.064 E5.27681
G1 X146.254 Y76.23 E5.29087
G1 X146.525 Y77.072 E5.36148
G1 X146.572 Y77.238 E5.37525
G1 X146.783 Y78.107 E5.44664
G1 X146.817 Y78.27 E5.45993
G1 X146.965 Y79.162 E5.5321
G1 X146.989 Y79.349 E5.54715
G1 X147.038 Y79.884 E5.59004
G1 X147.141 Y80.545 E5.64344
G1 X147.33 Y81.202 E5.69801
G1 X147.601 Y81.829 E5.75254
G1 X147.959 Y82.432 E5.80851
G1 X148.492 Y83.205 E5.88346
G1 X148.6 Y83.375 E5.89954
G1 X149.043 Y84.132 E5.96955
G1 X149.12 Y84.274 E5.98245
G1 X149.523 Y85.093 E6.05531
G1 X149.579 Y85.219 E6.06632
G1 X149.921 Y86.064 E6.13908
G1 X149.98 Y86.229 E6.15307
G1 X150.252 Y87.076 E6.22408
G1 X150.298 Y87.238 E6.23753
G1 X150.51 Y88.112 E6.30932
G1 X150.543 Y88.27 E6.3222
G1 X150.691 Y89.162 E6.39438
G1 X150.715 Y89.348 E6.40935
G1 X150.797 Y90.232 E6.48022
G1 X150.805 Y90.384 E6.49237
G1 X150.826 Y91.117 E6.5509
G1 X150.826 Y100.869 E7.32935
G1 X150.79 Y101.875 E7.4097
G1 X150.78 Y102.01 E7.42051
G1 X150.678 Y102.927 E7.49416
G1 X150.653 Y103.102 E7.50827
G1 X150.491 Y103.98 E7.57954
G1 X150.46 Y104.118 E7.59083
G1 X150.325 Y104.635 E7.63348
G1 X150.197 Y105.292 E7.68691
G1 X150.151 Y105.974 E7.74148
G1 X150.192 Y106.654 E7.79586
G1 X150.302 Y107.254 E7.84455
G1 X150.513 Y108.126 E7.91616
G1 X150.543 Y108.27 E7.92791
G1 X150.691 Y109.162 E8.00008
G1 X150.715 Y109.348 E8.01505
G1 X150.797 Y110.232 E8.08592
G1 X150.805 Y110.384 E8.09807
G1 X150.826 Y111.117 E8.15661
G1 X150.826 Y123.869 E9.17453
G1 X150.79 Y124.875 E9.25488
G1 X150.78 Y125.01 E9.26569
G1 X150.678 Y125.927 E9.33934
G1 X150.653 Y126.102 E9.35345
G1 X150.491 Y126.98 E9.42472
G1 X150.46 Y127.118 E9.43601
G1 X150.325 Y127.635 E9.47866
G1 X150.197 Y128.292 E9.53209
G1 X150.151 Y128.974 E9.58665
G1 X150.192 Y129.654 E9.64103
G1 X150.302 Y130.254 E9.68973
G1 X150.513 Y131.126 E9.76134
G1 X150.543 Y131.27 E9.77308
G1 X150.691 Y132.162 E9.84526
G1 X150.715 Y132.348 E9.86023
G1 X150.797 Y133.232 E9.9311
G1 X150.805 Y133.384 E9.94325
G1 X150.826 Y134.117 E10.00178
G1 X150.826 Y143.869 E10.78023
G1 X150.79 Y144.875 E10.86058
G1 X150.78 Y145.01 E10.87139
G1 X150.678 Y145.927 E10.94504
G1 X150.653 Y146.102 E10.95915
G1 X150.491 Y146.98 E11.03042
G1 X150.461 Y147.114 E11.04138
G1 X150.23 Y147.999 E11.11439
G1 X150.178 Y148.171 E11.12874
G1 X149.892 Y149.013 E11.19972
G1 X149.828 Y149.179 E11.21392
G1 X149.487 Y149.982 E11.28356
G1 X149.406 Y150.157 E11.29895
G1 X148.991 Y150.965 E11.37146
G1 X148.924 Y151.082 E11.38222
G1 X148.459 Y151.847 E11.45369
G1 X148.352 Y152.008 E11.46912
G1 X148.021 Y152.472 E11.51461
G1 X147.667 Y153.041 E11.56811
G1 X147.382 Y153.661 E11.62258
G1 X147.177 Y154.313 E11.67713
G1 X147.056 Y154.995 E11.73242
G1 X146.954 Y155.916 E11.80639
G1 X146.927 Y156.101 E11.82132
G1 X146.765 Y156.98 E11.89266
G1 X146.735 Y157.114 E11.90362
G1 X146.504 Y157.999 E11.97664
G1 X146.452 Y158.171 E11.99098
G1 X146.166 Y159.013 E12.06196
G1 X146.102 Y159.179 E12.07616
G1 X145.761 Y159.982 E12.1458
G1 X145.68 Y160.157 E12.1612
G1 X145.276 Y160.943 E12.23174
G1 X145.198 Y161.082 E12.24446
G1 X144.724 Y161.861 E12.31725
G1 X144.624 Y162.012 E12.33171
G1 X144.113 Y162.726 E12.4018
G1 X144 Y162.874 E12.41666
G1 X143.423 Y163.566 E12.48858
G1 X143.327 Y163.674 E12.50012
G1 X142.801 Y164.23 E12.56121
G1 X142.695 Y164.336 E12.57318
G1 X142.003 Y164.978 E12.64853
G1 X141.855 Y165.105 E12.6641
G1 X141.162 Y165.661 E12.73502
G1 X141.023 Y165.765 E12.74888
G1 X140.308 Y166.257 E12.81816
G1 X140.124 Y166.374 E12.83556
G1 X139.368 Y166.817 E12.90551
G1 X139.226 Y166.894 E12.9184
G1 X138.398 Y167.301 E12.99205
G1 X138.281 Y167.353 E13.00227
G1 X137.426 Y167.698 E13.07587
G1 X137.263 Y167.756 E13.08968
G1 X136.42 Y168.027 E13.16036
G1 X136.256 Y168.073 E13.17396
G1 X135.384 Y168.285 E13.24559
G1 X135.222 Y168.318 E13.25879
G1 X134.329 Y168.466 E13.33104
G1 X134.152 Y168.489 E13.34529
G1 X133.258 Y168.572 E13.41696
G1 X133.116 Y168.579 E13.42831
G1 X132.375 Y168.6 E13.48748
G1 X97.614 Y168.599 E16.26226
G1 X96.613 Y168.563 E16.34221
G1 X96.49 Y168.554 E16.35206
G1 X95.573 Y168.452 E16.42571
G1 X95.398 Y168.427 E16.43982
G1 X94.509 Y168.263 E16.51198
G1 X94.386 Y168.235 E16.52205
G1 X93.492 Y168.001 E16.59582
G1 X93.329 Y167.952 E16.6094
G1 X92.487 Y167.666 E16.68039
G1 X92.321 Y167.602 E16.69459
G1 X91.518 Y167.261 E16.76423
G1 X91.329 Y167.173 E16.78087
G1 X90.535 Y166.765 E16.85213
G1 X90.418 Y166.698 E16.86289
G1 X89.639 Y166.224 E16.93568
G1 X89.488 Y166.124 E16.95014
G1 X88.774 Y165.613 E17.02023
G1 X88.626 Y165.5 E17.03509
G1 X87.934 Y164.923 E17.10701
G1 X87.826 Y164.827 E17.11854
G1 X87.314 Y164.345 E17.17468
G1 X87.154 Y164.184 E17.19279
G1 X86.51 Y163.49 E17.26837
G1 X86.393 Y163.353 E17.28275
G1 X85.843 Y162.667 E17.35294
G1 X85.727 Y162.511 E17.36846
G1 X85.243 Y161.808 E17.43659
G1 X85.126 Y161.624 E17.45399
G1 X84.683 Y160.868 E17.52394
G1 X84.606 Y160.726 E17.53683
G1 X84.197 Y159.894 E17.61084
G1 X84.147 Y159.781 E17.6207
G1 X83.798 Y158.917 E17.69508
G1 X83.742 Y158.759 E17.70846
G1 X83.47 Y157.911 E17.77955
G1 X83.428 Y157.761 E17.79198
G1 X83.212 Y156.873 E17.86493
G1 X83.183 Y156.73 E17.87658
G1 X83.033 Y155.824 E17.94989
G1 X83.011 Y155.652 E17.96373
G1 X82.928 Y154.753 E18.0358
G1 X82.921 Y154.616 E18.04675
G1 X82.9 Y153.883 E18.10528
G1 X82.9 Y81.131 E23.91266
G1 X82.936 Y80.125 E23.99302
G1 X82.946 Y79.99 E24.00382
G1 X83.047 Y79.075 E24.0773
G1 X83.073 Y78.9 E24.09143
G1 X83.235 Y78.02 E24.16285
G1 X83.265 Y77.886 E24.17381
G1 X83.496 Y77 E24.2469
G1 X83.548 Y76.829 E24.26117
G1 X83.834 Y75.987 E24.33215
G1 X83.898 Y75.821 E24.34635
G1 X84.239 Y75.018 E24.41599
G1 X84.32 Y74.843 E24.43139
G1 X84.735 Y74.035 E24.5039
G1 X84.802 Y73.918 E24.51466
G1 X85.276 Y73.139 E24.58745
G1 X85.376 Y72.988 E24.6019
G1 X85.892 Y72.267 E24.67268
G1 X86 Y72.126 E24.68686
G0 F9000 X86.4 Y71.646
G1 F1125 X86.4 Y163.361 E32.00794
G0 F9000 X88 Y164.978
G1 F1125 X88 Y70.019 E39.58798
G0 F9000 X89.6 Y68.806
G1 F1125 X89.6 Y166.198 E47.36223
G0 F9000 X91.2 Y167.106
G1 F1125 X91.2 Y67.896 E55.2816
G0 F9000 X92.8 Y67.223
G1 F1125 X92.8 Y167.772 E63.30786
G0 F9000 X94.4 Y168.238
G1 F1125 X94.4 Y66.767 E71.40771
G0 F9000 X96 Y66.496
G1 F1125 X96 Y168.499 E79.55003
G0 F9000 X97.6 Y168.598
G1 F1125 X97.6 Y66.4 E87.70792
G0 F9000 X99.2 Y66.401
G1 F1125 X99.2 Y168.599 E95.86581
G0 F9000 X100.8 Y168.599
G1 F1125 X100.8 Y66.401 E104.02369
G0 F9000 X102.4 Y66.401
G1 F1125 X102.4 Y168.599 E112.18158
G0 F9000 X104 Y168.599
G1 F1125 X104 Y66.401 E120.33947
G0 F9000 X105.6 Y66.401
G1 F1125 X105.6 Y168.599 E128.49735
G0 F9000 X107.2 Y168.599
G1 F1125 X107.2 Y66.401 E136.65524
G0 F9000 X108.8 Y66.401
G1 F1125 X108.8 Y168.599 E144.81312
G0 F9000 X110.4 Y168.599
G1 F1125 X110.4 Y66.401 E152.97101
G0 F9000 X112 Y66.401
G1 F1125 X112 Y168.599 E161.1289
G0 F9000 X113.6 Y168.599
G1 F1125 X113.6 Y66.401 E169.28678
G0 F9000 X115.2 Y66.401
G1 F1125 X115.2 Y168.599 E177.44467
G0 F9000 X116.8 Y168.599
G1 F1125 X116.8 Y66.401 E185.60256
G0 F9000 X118.4 Y66.401
G1 F1125 X118.4 Y168.599 E193.76044
G0 F9000 X120 Y168.599
G1 F1125 X120 Y66.401 E201.91833
G0 F9000 X121.6 Y66.401
G1 F1125 X121.6 Y168.599 E210.07621
G0 F9000 X123.2 Y168.599
G1 F1125 X123.2 Y66.401 E218.2341
G0 F9000 X124.8 Y66.401
G1 F1125 X124.8 Y168.599 E226.39199
G0 F9000 X126.4 Y168.599
G1 F1125 X126.4 Y66.401 E234.54987
G0 F9000 X128 Y66.401
G1 F1125 X128 Y168.599 E242.70776
G0 F9000 X129.6 Y168.599
G1 F1125 X129.6 Y66.401 E250.86565
G0 F9000 X131.2 Y66.401
G1 F1125 X131.2 Y168.599 E259.02353
G0 F9000 X132.8 Y168.588
G1 F1125 X132.8 Y66.416 E267.17934
G0 F9000 X134.4 Y66.545
G1 F1125 X134.4 Y168.455 E275.31424
G0 F9000 X136 Y168.136
G1 F1125 X136 Y66.867 E283.39797
G0 F9000 X137.6 Y67.368
G1 F1125 X137.6 Y167.628 E291.40116
G0 F9000 X139.2 Y166.907
G1 F1125 X139.2 Y68.099 E299.28844
G0 F9000 X140.8 Y69.083
G1 F1125 X140.8 Y165.919 E307.01831
G0 F9000 X142.4 Y164.61
G1 F1125 X142.4 Y70.386 E314.53967
G0 F9000 X144 Y72.138
G1 F1125 X144 Y162.874 E321.78261
G0 F9000 X145.6 Y160.313
G1 F1125 X145.6 Y74.692 E328.61725
G1 F1500 E322.11725
G0 F9000 X146.759 Y74.638
G0 X147.264 Y75.894
G0 X147.824 Y77.881
G0 X148.183 Y80.316
G0 X147.2 Y80.751
G1 F1500 E328.61725
G1 F1125 X147.2 Y154.24 E334.48346
G0 F9000 X148.8 Y151.286
G1 F1125 X148.8 Y83.717 E339.87711
G0 F9000 X150.4 Y87.659
G1 F1125 X150.4 Y104.348 E341.2093
G0 F9000 X150.4 Y107.66
G1 F1125 X150.4 Y127.348 E342.78088
G0 F9000 X150.4 Y130.66
G1 F1125 X150.4 Y147.348 E344.11299
G1 F1500 E337.61299
G0 F9000 X151.43 Y147.617
G0 X150.813 Y149.583
G0 X147.087 Y159.583
G0 X146.21 Y161.453
G0 X145.496 Y162.622
G0 X144.226 Y164.266
G0 X142.707 Y165.776
G0 X141.637 Y166.634
G0 X139.885 Y167.747
G0 X138.69 Y168.335
G0 X136.725 Y169.047
G0 X135.416 Y169.366
G0 X133.339 Y169.632
G0 X96.56 Y169.626
G0 X95.234 Y169.479
G0 X93.207 Y169.027
G0 X91.917 Y168.587
G0 X90.037 Y167.705
G0 X88.878 Y166.996
G0 X87.234 Y165.726
G0 X85.712 Y164.194
G0 X84.951 Y163.243
G0 X83.881 Y161.605
G0 X84.8 Y161.067
G1 F1500 E344.11299
G1 F1125 X84.8 Y73.921 E351.06936
G1 F1500 E344.56936
G0 F9000 X83.795 Y73.537
G0 X82.913 Y75.417
G0 X82.789 Y75.781
G0 X82.232 Y77.629
G0 X83.2 Y78.21
G1 F1500 E351.06936
G1 F1125 X83.2 Y156.813 E357.34379
G1 F1500 E350.84379
G0 F300 X83.2 Y156.813 Z0.54
G0 F9000 X82.174 Y157.112
G0 X82.736 Y159.105
G0 X83.236 Y160.351
G0 X84.206 Y162.161
G0 X85.125 Y161.623
;TIME_ELAPSED:252.662759
;LAYER:-5
;TYPE:SUPPORT
G1 F1500 E357.34379
G1 F1125 X85.243 Y161.807 E357.3656
G1 X85.726 Y162.51 E357.45071
G1 X85.843 Y162.666 E357.47016
G1 X86.393 Y163.352 E357.5579
G1 X86.509 Y163.489 E357.57581
G1 X87.153 Y164.183 E357.67028
G1 X87.313 Y164.344 E357.69293
G1 X87.826 Y164.825 E357.7631
G1 X87.933 Y164.922 E357.77751
G1 X88.625 Y165.499 E357.86741
G1 X88.773 Y165.612 E357.88599
G1 X89.487 Y166.122 E357.97354
G1 X89.639 Y166.223 E357.99175
G1 X90.192 Y166.56 E358.05636
G1 X84.941 Y161.309 E358.79734
G1 X84.683 Y160.866 E358.84849
G1 X84.606 Y160.724 E358.86461
G1 X84.197 Y159.893 E358.95702
G1 X84.147 Y159.78 E358.96935
G1 X83.797 Y158.916 E359.06237
G1 X83.741 Y158.758 E359.0791
G1 X83.711 Y158.664 E359.08894
G1 X92.826 Y167.78 E360.37524
G1 X93.328 Y167.951 E360.42815
G1 X93.492 Y168 E360.44523
G1 X94.386 Y168.234 E360.53744
G1 X94.509 Y168.261 E360.55001
G1 X94.77 Y168.309 E360.57649
G1 X83.181 Y156.721 E362.21175
G1 X83.032 Y155.823 E362.30258
G1 X83.011 Y155.651 E362.31987
G1 X82.958 Y155.083 E362.37679
G1 X96.42 Y168.545 E364.27642
G1 X96.49 Y168.553 E364.28345
G1 X96.612 Y168.562 E364.29566
G1 X97.614 Y168.598 E364.3957
G1 X97.887 Y168.598 E364.42294
G1 X82.899 Y153.609 E366.53798
G1 X82.899 Y152.195 E366.67907
G1 X99.301 Y168.598 E368.99364
G1 X100.716 Y168.598 E369.13483
G1 X82.899 Y150.781 E371.649
G1 X82.899 Y149.367 E371.79009
G1 X102.13 Y168.598 E374.50379
G1 X103.544 Y168.598 E374.64488
G1 X82.899 Y147.952 E377.55818
G1 X82.899 Y146.538 E377.69927
G1 X104.958 Y168.598 E380.81211
G1 X106.372 Y168.598 E380.9532
G1 X82.899 Y145.124 E384.26556
G1 X82.899 Y143.71 E384.40665
G1 X107.787 Y168.598 E387.91862
G1 X109.201 Y168.598 E388.05971
G1 X82.899 Y142.296 E391.7712
G1 X82.899 Y140.881 E391.91239
G1 X110.615 Y168.598 E395.82349
G1 X112.029 Y168.598 E395.96458
G1 X82.899 Y139.467 E400.07521
G1 X82.899 Y138.053 E400.2163
G1 X113.443 Y168.598 E404.52646
G1 X114.858 Y168.598 E404.66764
G1 X82.899 Y136.639 E409.1774
G1 X82.899 Y135.224 E409.31859
G1 X116.272 Y168.598 E414.02796
G1 X117.686 Y168.598 E414.16904
G1 X82.899 Y133.81 E419.07794
G1 X82.899 Y132.396 E419.21903
G1 X119.1 Y168.598 E424.32745
G1 X120.515 Y168.598 E424.46864
G1 X82.899 Y130.982 E429.77666
G1 X82.899 Y129.568 E429.91775
G1 X121.929 Y168.598 E435.42531
G1 X123.343 Y168.598 E435.5664
G1 X82.899 Y128.153 E441.27355
G1 X82.899 Y126.739 E441.41464
G1 X124.757 Y168.598 E447.32133
G1 X126.171 Y168.598 E447.46242
G1 X82.899 Y125.325 E453.56863
G1 X82.899 Y123.911 E453.70972
G1 X127.586 Y168.598 E460.01554
G1 X129 Y168.598 E460.15663
G1 X82.899 Y122.497 E466.66198
G1 X82.899 Y121.082 E466.80317
G1 X130.414 Y168.598 E473.50812
G1 X131.828 Y168.598 E473.64921
G1 X82.899 Y119.668 E480.55369
G1 X82.899 Y118.254 E480.69478
G1 X133.217 Y168.572 E487.79519
G1 X133.258 Y168.571 E487.79929
G1 X134.152 Y168.487 E487.88888
G1 X134.329 Y168.465 E487.90668
G1 X134.495 Y168.437 E487.92348
G1 X82.899 Y116.84 E495.2043
G1 X82.899 Y115.425 E495.34549
G1 X135.683 Y168.21 E502.79395
G1 X136.255 Y168.072 E502.85266
G1 X136.419 Y168.026 E502.86966
G1 X136.793 Y167.906 E502.90885
G1 X82.899 Y114.011 E510.51395
G1 X82.899 Y112.597 E510.65504
G1 X137.833 Y167.531 E518.40682
G1 X138.28 Y167.352 E518.45486
G1 X138.397 Y167.3 E518.46764
G1 X138.812 Y167.096 E518.51378
G1 X82.899 Y111.183 E526.40371
G1 X82.899 Y109.769 E526.5448
G1 X139.732 Y166.602 E534.56455
G1 X140.123 Y166.373 E534.60976
G1 X140.308 Y166.256 E534.6316
G1 X140.599 Y166.055 E534.66689
G1 X82.899 Y108.354 E542.80906
G1 X82.899 Y106.94 E542.95015
G1 X141.414 Y165.456 E551.20731
G1 X141.854 Y165.104 E551.26354
G1 X142.003 Y164.977 E551.28307
G1 X142.182 Y164.81 E551.3075
G1 X82.899 Y105.526 E559.67304
G1 X82.899 Y104.112 E559.81413
G1 X142.905 Y164.118 E568.28163
G1 X143.327 Y163.673 E568.34282
G1 X143.423 Y163.565 E568.35724
G1 X143.579 Y163.378 E568.38154
G1 X82.899 Y102.698 E576.94414
G1 X82.899 Y101.283 E577.08533
G1 X144.208 Y162.592 E585.73669
G1 X144.623 Y162.011 E585.80793
G1 X144.724 Y161.86 E585.82606
