;FLAVOR:Marlin
;TIME:5525
;Filament used: 4.40291m
;Layer height: 0.2
;MINX:81.836
;MINY:76.839
;MINZ:0.24
;MAXX:153.165
;MAXY:158.132
;MAXZ:6.09
;Generated with Cura_SteamEngine master
M140 S60
M105
M190 S60
M104 S200
M105
M109 S200
M82 ;absolute extrusion mode
M201 X500.00 Y500.00 Z100.00 E5000.00 ;Setup machine max acceleration
M203 X500.00 Y500.00 Z10.00 E50.00 ;Setup machine max feedrate
M204 P500.00 R1000.00 T500.00 ;Setup Print/Retract/Travel acceleration
M205 X8.00 Y8.00 Z0.40 E5.00 ;Setup Jerk
M220 S100 ;Reset Feedrate
M221 S100 ;Reset Flowrate

G28 ;Home

G92 E0 ;Reset Extruder
G1 Z2.0 F3000 ;Move Z Axis up
G1 X10.1 Y20 Z0.28 F5000.0 ;Move to start position
G1 X10.1 Y200.0 Z0.28 F1500.0 E15 ;Draw the first line
G1 X10.4 Y200.0 Z0.28 F5000.0 ;Move to side a little
G1 X10.4 Y20 Z0.28 F1500.0 E30 ;Draw the second line
G92 E0 ;Reset Extruder
G1 Z2.0 F3000 ;Move Z Axis up

G92 E0
G92 E0
G1 F1500 E-6.5
;LAYER_COUNT:25
;LAYER:-6
M107
G0 F9000 X93.042 Y88.026 Z0.24
;TYPE:SUPPORT-INTERFACE
G1 F1500 E0
G1 F1125 X93.581 Y87.516 E0.05923
G1 X95.231 Y86.039 E0.236
G1 X95.316 Y85.965 E0.245
G1 X96.067 Y85.339 E0.32304
G1 X96.599 Y84.943 E0.37598
G1 X98.409 Y83.66 E0.55308
G1 X98.759 Y83.42 E0.58696
G1 X99.776 Y82.801 E0.68199
G1 X101.752 Y81.707 E0.86229
G1 X102.311 Y81.415 E0.91263
G1 X103.284 Y80.972 E0.99797
G1 X105.447 Y80.077 E1.18483
G1 X105.506 Y80.055 E1.18985
G1 X106.819 Y79.604 E1.30067
G1 X106.928 Y79.57 E1.30979
G1 X108.95 Y78.988 E1.47775
G1 X109.052 Y78.961 E1.48617
G1 X110.366 Y78.654 E1.59388
G1 X110.616 Y78.605 E1.61422
G1 X112.763 Y78.241 E1.78805
G1 X113.881 Y78.094 E1.87806
G1 X114.422 Y78.052 E1.92137
G1 X116.661 Y77.925 E2.10039
G1 X117.5 Y77.902 E2.16739
G1 X118.352 Y77.925 E2.23542
G1 X120.579 Y78.052 E2.41348
G1 X121.06 Y78.088 E2.45198
G1 X122.153 Y78.229 E2.53995
G1 X122.237 Y78.241 E2.54672
G1 X124.486 Y78.623 E2.72882
G1 X124.634 Y78.653 E2.74088
G1 X125.948 Y78.961 E2.84861
G1 X126.05 Y78.988 E2.85703
G1 X128.072 Y79.57 E3.02499
G1 X128.181 Y79.604 E3.0341
G1 X129.494 Y80.055 E3.14492
G1 X129.696 Y80.135 E3.16227
G1 X131.716 Y80.972 E3.3368
G1 X132.689 Y81.415 E3.42214
G1 X133.248 Y81.707 E3.47249
G1 X135.224 Y82.801 E3.65278
G1 X136.245 Y83.423 E3.74821
G1 X136.592 Y83.66 E3.78176
G1 X138.401 Y84.943 E3.95879
G1 X138.966 Y85.365 E4.01508
G1 X139.684 Y85.965 E4.08977
G1 X139.769 Y86.039 E4.09877
G1 X141.414 Y87.513 E4.27508
G1 X141.974 Y88.042 E4.33658
G1 X142.484 Y88.581 E4.39581
G1 X143.961 Y90.231 E4.57258
G1 X144.035 Y90.316 E4.58158
G1 X144.622 Y91.018 E4.65462
G1 X144.671 Y91.08 E4.66093
G1 X145.057 Y91.599 E4.71256
G1 X146.34 Y93.409 E4.88966
G1 X146.558 Y93.725 E4.92031
G1 X146.591 Y93.776 E4.92515
G1 X147.194 Y94.767 E5.01775
G1 X148.289 Y96.744 E5.19816
G1 X148.584 Y97.309 E5.24903
G1 X148.987 Y98.19 E5.32637
G1 X149.028 Y98.284 E5.33455
G1 X149.912 Y100.419 E5.51901
G1 X149.945 Y100.507 E5.52651
G1 X150.396 Y101.819 E5.63726
G1 X150.428 Y101.92 E5.64571
G1 X151.01 Y103.942 E5.81367
G1 X151.038 Y104.046 E5.82227
G1 X151.346 Y105.366 E5.93047
G1 X151.395 Y105.616 E5.9508
G1 X151.759 Y107.763 E6.12463
G1 X151.904 Y108.873 E6.21399
G1 X151.914 Y108.962 E6.22114
G1 X151.953 Y109.489 E6.26332
G1 X152.072 Y111.6 E6.4321
G1 X152.078 Y111.736 E6.44296
G1 X152.1 Y112.503 E6.50421
G1 X152.1 Y142.369 E8.88825
G1 X152.064 Y143.375 E8.9686
G1 X152.054 Y143.51 E8.97941
G1 X151.952 Y144.427 E9.05306
G1 X151.927 Y144.602 E9.06717
G1 X151.765 Y145.48 E9.13844
G1 X151.735 Y145.614 E9.1494
G1 X151.504 Y146.499 E9.22241
G1 X151.452 Y146.671 E9.23675
G1 X151.166 Y147.513 E9.30774
G1 X151.102 Y147.679 E9.32194
G1 X150.761 Y148.482 E9.39158
G1 X150.68 Y148.657 E9.40697
G1 X150.276 Y149.443 E9.47752
G1 X150.198 Y149.582 E9.49024
G1 X149.724 Y150.361 E9.56303
G1 X149.624 Y150.512 E9.57749
G1 X149.113 Y151.226 E9.64757
G1 X149 Y151.374 E9.66244
G1 X148.423 Y152.066 E9.73436
G1 X148.327 Y152.174 E9.74589
G1 X147.845 Y152.686 E9.80202
G1 X147.688 Y152.842 E9.81969
G1 X147.003 Y153.478 E9.89431
G1 X146.855 Y153.605 E9.90987
G1 X146.162 Y154.161 E9.9808
G1 X146.023 Y154.265 E9.99465
G1 X145.308 Y154.757 E10.06393
G1 X145.124 Y154.874 E10.08134
G1 X144.368 Y155.317 E10.15128
G1 X144.226 Y155.394 E10.16418
G1 X143.398 Y155.801 E10.23783
G1 X143.281 Y155.853 E10.24805
G1 X142.426 Y156.198 E10.32164
G1 X142.263 Y156.256 E10.33545
G1 X141.42 Y156.527 E10.40614
G1 X141.256 Y156.573 E10.41973
G1 X140.384 Y156.785 E10.49137
G1 X140.222 Y156.818 E10.50457
G1 X139.329 Y156.966 E10.57682
G1 X139.152 Y156.989 E10.59107
G1 X138.258 Y157.072 E10.66274
G1 X138.116 Y157.079 E10.67409
G1 X137.375 Y157.1 E10.73326
G1 X97.614 Y157.099 E13.90716
G1 X96.613 Y157.063 E13.98711
G1 X96.49 Y157.054 E13.99696
G1 X95.573 Y156.952 E14.07061
G1 X95.398 Y156.927 E14.08472
G1 X94.509 Y156.763 E14.15688
G1 X94.386 Y156.735 E14.16695
G1 X93.492 Y156.501 E14.24072
G1 X93.329 Y156.452 E14.2543
G1 X92.487 Y156.166 E14.32529
G1 X92.321 Y156.102 E14.33949
G1 X91.518 Y155.761 E14.40913
G1 X91.329 Y155.673 E14.42577
G1 X90.535 Y155.265 E14.49703
G1 X90.418 Y155.198 E14.50779
G1 X89.639 Y154.724 E14.58058
G1 X89.488 Y154.624 E14.59504
G1 X88.774 Y154.113 E14.66512
G1 X88.626 Y154 E14.67999
G1 X87.934 Y153.423 E14.75191
G1 X87.826 Y153.327 E14.76344
G1 X87.314 Y152.845 E14.81957
G1 X87.154 Y152.684 E14.83769
G1 X86.51 Y151.99 E14.91327
G1 X86.393 Y151.853 E14.92765
G1 X85.843 Y151.167 E14.99784
G1 X85.727 Y151.011 E15.01335
G1 X85.243 Y150.308 E15.08148
G1 X85.126 Y150.124 E15.09889
G1 X84.683 Y149.368 E15.16883
G1 X84.606 Y149.226 E15.18173
G1 X84.197 Y148.394 E15.25573
G1 X84.147 Y148.281 E15.2656
G1 X83.798 Y147.417 E15.33998
G1 X83.742 Y147.259 E15.35336
G1 X83.47 Y146.411 E15.42445
G1 X83.428 Y146.261 E15.43688
G1 X83.212 Y145.373 E15.50983
G1 X83.183 Y145.23 E15.52148
G1 X83.033 Y144.324 E15.59479
G1 X83.011 Y144.152 E15.60863
G1 X82.928 Y143.253 E15.68069
G1 X82.921 Y143.116 E15.69164
G1 X82.9 Y142.383 E15.75018
G1 X82.9 Y112.514 E18.13445
G1 X82.922 Y111.742 E18.1961
G1 X82.927 Y111.6 E18.20744
G1 X83.053 Y109.407 E18.38279
G1 X83.085 Y108.975 E18.41737
G1 X83.095 Y108.881 E18.42491
G1 X83.224 Y107.882 E18.50532
G1 X83.241 Y107.763 E18.51491
G1 X83.624 Y105.51 E18.69734
G1 X83.653 Y105.366 E18.70906
G1 X83.959 Y104.058 E18.81629
G1 X83.988 Y103.95 E18.82522
G1 X84.57 Y101.928 E18.99318
G1 X84.604 Y101.819 E19.00229
G1 X85.055 Y100.507 E19.11304
G1 X85.135 Y100.304 E19.13045
G1 X85.972 Y98.284 E19.30499
G1 X86.416 Y97.309 E19.39051
G1 X86.454 Y97.233 E19.39729
G1 X86.707 Y96.752 E19.44068
G1 X87.801 Y94.776 E19.62097
G1 X88.421 Y93.757 E19.71618
G1 X88.657 Y93.413 E19.74949
G1 X89.943 Y91.599 E19.92698
G1 X90.324 Y91.087 E19.97793
G1 X90.373 Y91.024 E19.9843
G1 X90.965 Y90.316 E20.05797
G1 X91.039 Y90.231 E20.06696
G1 X92.513 Y88.586 E20.24328
G1 X93.042 Y88.026 E20.30477
G1 X92.8 Y88.282
G1 X92.8 Y156.272 E25.73203
G0 F9000 X94.4 Y156.738
G1 F1125 X94.4 Y86.782 E31.31622
G0 F9000 X96 Y85.394
G1 F1125 X96 Y156.999 E37.03204
G0 F9000 X97.6 Y157.098
G1 F1125 X97.6 Y84.233 E42.84844
G0 F9000 X99.2 Y83.151
G1 F1125 X99.2 Y157.099 E48.75129
G0 F9000 X100.8 Y157.099
G1 F1125 X100.8 Y82.234 E54.72733
G0 F9000 X102.4 Y81.374
G1 F1125 X102.4 Y157.099 E60.77203
G0 F9000 X104 Y157.099
G1 F1125 X104 Y80.675 E66.87252
G0 F9000 X105.6 Y80.022
G1 F1125 X105.6 Y157.099 E73.02514
G0 F9000 X107.2 Y157.099
G1 F1125 X107.2 Y79.491 E79.22015
G0 F9000 X108.8 Y79.031
G1 F1125 X108.8 Y157.099 E85.45188
G0 F9000 X110.4 Y157.099
G1 F1125 X110.4 Y78.647 E91.71425
G0 F9000 X112 Y78.37
G1 F1125 X112 Y157.099 E97.99874
G0 F9000 X113.6 Y157.099
G1 F1125 X113.6 Y78.13 E104.30239
G0 F9000 X115.2 Y78.007
G1 F1125 X115.2 Y157.099 E110.61585
G0 F9000 X116.8 Y157.099
G1 F1125 X116.8 Y77.921 E116.93619
G0 F9000 X118.4 Y77.928
G1 F1125 X118.4 Y157.099 E123.25596
G0 F9000 X120 Y157.099
G1 F1125 X120 Y78.019 E129.56846
G0 F9000 X121.6 Y78.158
G1 F1125 X121.6 Y157.099 E135.86988
G0 F9000 X123.2 Y157.099
G1 F1125 X123.2 Y78.405 E142.15157
G0 F9000 X124.8 Y78.692
G1 F1125 X124.8 Y157.099 E148.41036
G0 F9000 X126.4 Y157.099
G1 F1125 X126.4 Y79.089 E154.63745
G0 F9000 X128 Y79.55
G1 F1125 X128 Y157.099 E160.82775
G0 F9000 X129.6 Y157.099
G1 F1125 X129.6 Y80.097 E166.97438
G0 F9000 X131.2 Y80.759
G1 F1125 X131.2 Y157.099 E173.06817
G0 F9000 X132.8 Y157.099
G1 F1125 X132.8 Y81.473 E179.10497
G0 F9000 X134.4 Y82.345
G1 F1125 X134.4 Y157.099 E185.07215
G0 F9000 X136 Y157.099
G1 F1125 X136 Y83.274 E190.96518
G0 F9000 X137.6 Y84.375
G1 F1125 X137.6 Y157.094 E196.76993
G0 F9000 X139.2 Y156.983
G1 F1125 X139.2 Y85.561 E202.47114
G0 F9000 X140.8 Y86.963
G1 F1125 X140.8 Y156.684 E208.03657
G0 F9000 X142.4 Y156.208
G1 F1125 X142.4 Y88.493 E213.44188
G0 F9000 X144 Y90.276
G1 F1125 X144 Y155.506 E218.64882
G0 F9000 X145.6 Y154.557
G1 F1125 X145.6 Y92.366 E223.61317
G0 F9000 X147.2 Y94.778
G1 F1125 X147.2 Y153.296 E228.28433
G0 F9000 X148.8 Y151.614
G1 F1125 X148.8 Y97.782 E232.58144
G0 F9000 X150.4 Y101.832
G1 F1125 X150.4 Y149.202 E236.36271
G1 F1500 E229.86271
G0 F9000 X151.632 Y149.132
G0 X152.169 Y147.868
G0 X152.654 Y146.251
G0 X153.009 Y144.555
G0 X152 Y143.996
G1 F1500 E236.36271
G1 F1125 X152 Y110.323 E239.05064
G1 F1500 E232.55064
G0 F9000 X153.062 Y110.263
G0 X152.962 Y108.752
G0 X152.387 Y105.141
G0 X152.036 Y103.662
G0 X151.41 Y101.493
G0 X150.844 Y99.885
G0 X149.49 Y96.742
G0 X148.113 Y94.23
G0 X147.213 Y92.802
G0 X145.449 Y90.347
G0 X142.667 Y87.232
G0 X139.558 Y84.477
G0 X136.784 Y82.504
G0 X133.757 Y80.772
G0 X132.13 Y79.991
G0 X129.856 Y79.054
G0 X128.381 Y78.551
G0 X126.206 Y77.929
G0 X124.562 Y77.556
G0 X121.101 Y77.024
G0 X117.412 Y76.839
G0 X113.751 Y77.039
G0 X110.141 Y77.613
G0 X108.662 Y77.964
G0 X106.493 Y78.59
G0 X104.899 Y79.15
G0 X101.771 Y80.495
G0 X98.321 Y82.43
G0 X95.367 Y84.535
G0 X92.232 Y87.333
G0 X90.406 Y89.341
G0 X91.2 Y90.051
G1 F1500 E239.05064
G1 F1125 X91.2 Y155.606 E244.28352
G0 F9000 X89.6 Y154.698
G1 F1125 X89.6 Y92.082 E249.2818
G0 F9000 X88 Y94.448
G1 F1125 X88 Y153.478 E253.99383
G0 F9000 X86.4 Y151.861
G1 F1125 X86.4 Y97.344 E258.34561
G0 F9000 X84.8 Y101.248
G1 F1125 X84.8 Y149.567 E262.20265
G1 F1500 E255.70265
G0 F9000 X83.664 Y149.722
G0 X82.806 Y147.803
G0 X82.69 Y147.441
G0 X82.174 Y145.612
G0 X83.2 Y145.313
G1 F1500 E262.20265
G1 F1125 X83.2 Y108.067 E265.17578
G1 F1500 E258.67578
G0 F300 X83.2 Y108.067 Z0.54
G0 F9000 X82.188 Y107.604
G0 X82.613 Y105.141
G0 X82.964 Y103.662
G0 X83.59 Y101.493
G0 X84.15 Y99.899
G0 X85.51 Y96.742
G0 X86.887 Y94.23
G0 X87.787 Y92.802
G0 X89.551 Y90.347
G0 X92.332 Y87.233
G0 X95.442 Y84.477
G0 X98.05 Y82.635
G0 X99.22 Y81.893
G0 X99.773 Y82.802
;TIME_ELAPSED:191.293974
;LAYER:-5
;TYPE:SUPPORT
G1 F1500 E265.17578
G1 F1125 X152.099 Y135.128 E272.55955
G1 X152.099 Y136.543 E272.70074
G1 X98.894 Y83.338 E280.20854
G1 X98.758 Y83.42 E280.22438
G1 X98.408 Y83.659 E280.26667
G1 X98.053 Y83.911 E280.31011
G1 X152.099 Y137.957 E287.93658
G1 X152.099 Y139.371 E288.07767
G1 X97.226 Y84.498 E295.82085
G1 X96.598 Y84.942 E295.89759
G1 X96.402 Y85.088 E295.92197
G1 X152.099 Y140.785 E303.78142
G1 X152.099 Y142.199 E303.92251
G1 X95.615 Y85.716 E311.89294
G1 X95.315 Y85.965 E311.93185
G1 X95.23 Y86.039 E311.94309
G1 X94.858 Y86.373 E311.99298
G1 X152.047 Y143.562 E320.06296
G1 X151.95 Y144.427 E320.14981
G1 X151.926 Y144.601 E320.16734
G1 X151.887 Y144.816 E320.18914
G1 X94.111 Y87.04 E328.34196
G1 X93.579 Y87.515 E328.41312
G1 X93.371 Y87.714 E328.44184
G1 X151.639 Y145.982 E336.66409
G1 X151.503 Y146.498 E336.71733
G1 X151.45 Y146.67 E336.73529
G1 X151.315 Y147.072 E336.77761
G1 X92.665 Y88.422 E345.05375
G1 X92.512 Y88.586 E345.07613
G1 X91.993 Y89.164 E345.15364
G1 X150.924 Y148.096 E353.46952
G1 X150.76 Y148.481 E353.51127
G1 X150.679 Y148.657 E353.5306
G1 X150.473 Y149.059 E353.57568
G1 X91.324 Y89.91 E361.92224
G1 X91.038 Y90.231 E361.96514
G1 X90.964 Y90.316 E361.97638
G1 X90.668 Y90.668 E362.02227
G1 X149.965 Y149.965 E370.38972
G1 X149.724 Y150.36 E370.43589
G1 X149.624 Y150.511 E370.45396
G1 X149.404 Y150.818 E370.49165
G1 X90.045 Y91.459 E378.86784
G1 X89.943 Y91.597 E378.88497
G1 X89.456 Y92.284 E378.96899
G1 X148.793 Y151.622 E387.34215
G1 X148.423 Y152.064 E387.39967
G1 X148.326 Y152.173 E387.41423
G1 X148.135 Y152.377 E387.44211
G1 X88.869 Y93.111 E395.80518
G1 X88.657 Y93.411 E395.84184
G1 X88.42 Y93.756 E395.8836
G1 X88.299 Y93.956 E395.90693
G1 X147.426 Y153.083 E404.25039
G1 X147.003 Y153.477 E404.30807
G1 X146.855 Y153.604 E404.32752
G1 X146.675 Y153.746 E404.3504
G1 X87.766 Y94.837 E412.6631
G1 X87.262 Y95.747 E412.76689
G1 X145.877 Y154.362 E421.0381
G1 X145.307 Y154.755 E421.10719
G1 X145.123 Y154.873 E421.129
G1 X145.029 Y154.928 E421.13986
G1 X86.758 Y96.657 E429.36253
G1 X86.707 Y96.751 E429.3732
G1 X86.454 Y97.232 E429.42743
G1 X86.416 Y97.308 E429.43591
G1 X86.283 Y97.597 E429.46765
G1 X144.127 Y155.441 E437.63007
G1 X143.397 Y155.8 E437.71124
G1 X143.281 Y155.851 E437.72388
G1 X143.168 Y155.896 E437.73602
G1 X85.849 Y98.577 E445.82435
G1 X85.435 Y99.577 E445.93234
G1 X142.148 Y156.291 E453.93523
G1 X141.419 Y156.526 E454.01165
G1 X141.255 Y156.571 E454.02862
G1 X141.062 Y156.618 E454.04844
G1 X85.028 Y100.584 E461.95545
G1 X84.666 Y101.636 E462.06646
G1 X139.899 Y156.87 E469.8605
G1 X139.329 Y156.965 E469.91816
G1 X139.152 Y156.988 E469.93597
G1 X138.649 Y157.034 E469.98637
G1 X84.34 Y102.724 E477.65003
G1 X84.024 Y103.823 E477.76413
G1 X137.299 Y157.098 E485.2818
G1 X135.885 Y157.098 E485.42289
G1 X83.746 Y104.96 E492.7802
G1 X83.652 Y105.365 E492.82169
G1 X83.623 Y105.508 E492.83624
G1 X83.515 Y106.143 E492.90051
G1 X134.471 Y157.098 E500.09089
G1 X133.056 Y157.098 E500.23208
G1 X83.31 Y107.352 E507.25177
G1 X83.241 Y107.762 E507.29326
G1 X83.224 Y107.881 E507.30525
G1 X83.132 Y108.588 E507.37639
G1 X131.642 Y157.098 E514.22168
G1 X130.228 Y157.098 E514.36277
G1 X83.024 Y109.894 E521.02376
G1 X82.947 Y111.232 E521.15749
G1 X128.814 Y157.098 E527.62975
G1 X127.4 Y157.098 E527.77084
G1 X82.899 Y112.598 E534.05034
G1 X82.899 Y114.012 E534.19143
G1 X125.985 Y157.098 E540.27133
G1 X124.571 Y157.098 E540.41242
G1 X82.899 Y115.426 E546.29279
G1 X82.899 Y116.84 E546.43388
G1 X123.157 Y157.098 E552.11471
G1 X121.743 Y157.098 E552.2558
G1 X82.899 Y118.255 E557.73704
G1 X82.899 Y119.669 E557.87813
G1 X120.329 Y157.098 E563.15984
G1 X118.914 Y157.098 E563.30103
G1 X82.899 Y121.083 E568.38313
G1 X82.899 Y122.497 E568.52422
G1 X117.5 Y157.098 E573.4068
G1 X116.086 Y157.098 E573.54789
G1 X82.899 Y123.911 E578.23093
G1 X82.899 Y125.326 E578.37212
G1 X114.672 Y157.098 E582.85556
G1 X113.258 Y157.098 E582.99665
G1 X82.899 Y126.74 E587.28056
G1 X82.899 Y128.154 E587.42165
G1 X111.843 Y157.098 E591.50596
G1 X110.429 Y157.098 E591.64705
G1 X82.899 Y129.568 E595.53183
G1 X82.899 Y130.983 E595.67302
G1 X109.015 Y157.098 E599.3582
G1 X107.601 Y157.098 E599.49929
G1 X82.899 Y132.397 E602.98494
G1 X82.899 Y133.811 E603.12603
G1 X106.186 Y157.098 E606.41208
G1 X104.772 Y157.098 E606.55317
G1 X82.899 Y135.225 E609.63968
G1 X82.899 Y136.639 E609.78077
G1 X103.358 Y157.098 E612.66776
G1 X101.944 Y157.098 E612.80885
G1 X82.899 Y138.054 E615.49623
G1 X82.899 Y139.468 E615.63732
G1 X100.53 Y157.098 E618.12518
G1 X99.115 Y157.098 E618.26637
G1 X82.899 Y140.882 E620.55462
G1 X82.899 Y142.296 E620.69571
G1 X97.701 Y157.098 E622.78443
G1 X97.613 Y157.098 E622.79321
G1 X96.613 Y157.062 E622.89306
G1 X96.489 Y157.053 E622.90546
G1 X96.211 Y157.022 E622.93337
G1 X82.976 Y143.788 E624.8009
G1 X83.01 Y144.151 E624.83728
G1 X83.032 Y144.323 E624.85458
G1 X83.183 Y145.229 E624.94623
G1 X83.212 Y145.372 E624.96079
G1 X83.232 Y145.458 E624.9696
G1 X94.543 Y156.769 E626.56571
G1 X94.509 Y156.762 E626.56917
G1 X94.386 Y156.734 E626.58176
G1 X93.491 Y156.5 E626.67406
G1 X93.328 Y156.45 E626.69107
G1 X92.544 Y156.184 E626.77368
G1 X83.811 Y147.451 E628.006
G1 X84.147 Y148.28 E628.09526
G1 X84.196 Y148.393 E628.10755
G1 X84.606 Y149.225 E628.2001
G1 X84.683 Y149.367 E628.21621
G1 X85.125 Y150.123 E628.30359
G1 X85.225 Y150.279 E628.32208
G1 X89.717 Y154.771 E628.95595
G1 X89.638 Y154.723 E628.96518
