;FLAVOR:Marlin
;TIME:2857
;Filament used: 2.08389m
;Layer height: 0.2
;MINX:82.542
;MINY:82.553
;MINZ:0.24
;MAXX:152.437
;MAXY:149.785
;MAXZ:7.09
;Generated with Cura_SteamEngine master
M140 S60
M105
M190 S60
M104 S200
M105
M109 S200
M82 ;absolute extrusion mode
M201 X500.00 Y500.00 Z100.00 E5000.00 ;Setup machine max acceleration
M203 X500.00 Y500.00 Z10.00 E50.00 ;Setup machine max feedrate
M204 P500.00 R1000.00 T500.00 ;Setup Print/Retract/Travel acceleration
M205 X8.00 Y8.00 Z0.40 E5.00 ;Setup Jerk
M220 S100 ;Reset Feedrate
M221 S100 ;Reset Flowrate

G28 ;Home

G92 E0 ;Reset Extruder
G1 Z2.0 F3000 ;Move Z Axis up
G1 X10.1 Y20 Z0.28 F5000.0 ;Move to start position
G1 X10.1 Y200.0 Z0.28 F1500.0 E15 ;Draw the first line
G1 X10.4 Y200.0 Z0.28 F5000.0 ;Move to side a little
G1 X10.4 Y20 Z0.28 F1500.0 E30 ;Draw the second line
G92 E0 ;Reset Extruder
G1 Z2.0 F3000 ;Move Z Axis up

G92 E0
G92 E0
G1 F1500 E-6.5
;LAYER_COUNT:30
;LAYER:-6
M107
G0 F9000 X100.215 Y90.47 Z0.24
;TYPE:SUPPORT-INTERFACE
G1 F1500 E0
G1 F1125 X100.959 Y89.691 E0.08599
G1 X101.054 Y89.596 E0.09671
G1 X101.467 Y89.195 E0.14266
G1 X102.022 Y88.682 E0.20299
G1 X102.693 Y88.13 E0.27235
G1 X102.778 Y88.062 E0.28104
G1 X103.23 Y87.715 E0.32652
G1 X104.09 Y87.097 E0.41106
G1 X104.208 Y87.018 E0.4224
G1 X104.501 Y86.834 E0.45001
G1 X104.706 Y86.706 E0.46931
G1 X105.252 Y86.378 E0.52015
G1 X105.296 Y86.352 E0.52423
G1 X106.13 Y85.893 E0.60022
G1 X106.272 Y85.82 E0.61296
G1 X106.716 Y85.606 E0.65231
G1 X107.281 Y85.349 E0.70186
G1 X107.384 Y85.304 E0.71083
G1 X108.359 Y84.904 E0.79495
G1 X108.443 Y84.872 E0.80213
G1 X108.912 Y84.71 E0.84174
G1 X109.466 Y84.531 E0.88821
G1 X109.628 Y84.481 E0.90174
G1 X110.183 Y84.316 E0.94796
G1 X111.097 Y84.097 E1.02299
G1 X111.832 Y83.947 E1.08287
G1 X112.182 Y83.883 E1.11127
G1 X113.41 Y83.719 E1.21016
G1 X113.533 Y83.706 E1.22004
G1 X114.152 Y83.653 E1.26963
G1 X115.336 Y83.601 E1.36423
G1 X115.418 Y83.599 E1.37078
G1 X115.893 Y83.606 E1.4087
G1 X116.509 Y83.624 E1.45789
G1 X117.285 Y83.667 E1.51993
G1 X118.132 Y83.762 E1.58797
G1 X118.864 Y83.867 E1.64699
G1 X119.417 Y83.959 E1.69174
G1 X120.554 Y84.214 E1.78476
G1 X121.1 Y84.357 E1.82981
G1 X122.36 Y84.75 E1.93517
G1 X122.46 Y84.784 E1.9436
G1 X122.763 Y84.899 E1.96947
G1 X123.414 Y85.153 E2.02525
G1 X123.55 Y85.211 E2.03706
G1 X124.841 Y85.807 E2.15056
G1 X124.931 Y85.851 E2.15856
G1 X125.463 Y86.131 E2.20655
G1 X126.194 Y86.545 E2.27361
G1 X126.896 Y86.993 E2.34008
G1 X127.498 Y87.405 E2.39831
G1 X128.203 Y87.921 E2.46805
G1 X128.776 Y88.39 E2.52716
G1 X129.276 Y88.821 E2.57985
G1 X129.487 Y89.012 E2.60257
G1 X130.488 Y89.997 E2.71467
G1 X130.59 Y90.102 E2.72636
G1 X130.998 Y90.55 E2.77473
G1 X131.76 Y91.456 E2.86923
G1 X132.035 Y91.823 E2.90583
G1 X132.437 Y92.377 E2.96047
G1 X133.143 Y93.444 E3.0626
G1 X133.28 Y93.636 E3.08143
G1 X133.517 Y93.968 E3.11399
G1 X133.98 Y94.469 E3.16845
G1 X134.504 Y94.909 E3.22306
G1 X135.078 Y95.278 E3.27753
G1 X135.694 Y95.572 E3.33202
G1 X135.848 Y95.641 E3.34549
G1 X136.372 Y95.796 E3.38911
G1 X137.442 Y96.134 E3.47868
G1 X138.046 Y96.35 E3.52989
G1 X138.495 Y96.519 E3.56818
G1 X139.563 Y96.993 E3.66145
G1 X140.191 Y97.303 E3.71736
G1 X141.275 Y97.896 E3.81599
G1 X141.634 Y98.119 E3.84972
G1 X142.112 Y98.425 E3.89503
G1 X142.215 Y98.495 E3.90497
G1 X143.216 Y99.203 E4.00284
G1 X143.288 Y99.256 E4.00998
G1 X143.552 Y99.466 E4.03691
G1 X144.122 Y99.933 E4.09573
G1 X144.534 Y100.285 E4.13898
G1 X145.283 Y101.001 E4.22169
G1 X145.378 Y101.096 E4.23242
G1 X145.779 Y101.509 E4.27837
G1 X146.299 Y102.072 E4.33955
G1 X146.844 Y102.735 E4.40806
G1 X146.912 Y102.82 E4.41674
G1 X147.259 Y103.272 E4.46223
G1 X147.86 Y104.109 E4.54448
G1 X147.96 Y104.258 E4.55881
G1 X148.281 Y104.77 E4.60705
G1 X148.59 Y105.283 E4.65485
G1 X149.131 Y106.268 E4.74456
G1 X149.356 Y106.733 E4.78579
G1 X149.637 Y107.347 E4.83969
G1 X150.095 Y108.463 E4.93599
G1 X150.257 Y108.935 E4.97582
G1 X150.443 Y109.508 E5.02391
G1 X150.493 Y109.67 E5.03744
G1 X150.658 Y110.225 E5.08366
G1 X150.877 Y111.139 E5.15869
G1 X151.027 Y111.874 E5.21857
G1 X151.089 Y112.21 E5.24584
G1 X151.253 Y113.425 E5.34371
G1 X151.267 Y113.547 E5.35351
G1 X151.314 Y114.084 E5.39654
G1 X151.322 Y114.218 E5.40726
G1 X151.373 Y115.373 E5.49954
G1 X151.375 Y115.478 E5.50793
G1 X151.37 Y115.855 E5.53802
G1 X151.352 Y116.527 E5.59168
G1 X151.305 Y117.352 E5.65765
G1 X151.212 Y118.174 E5.72368
G1 X151.109 Y118.892 E5.78158
G1 X151.026 Y119.402 E5.82283
G1 X150.789 Y120.476 E5.91062
G1 X150.762 Y120.589 E5.91989
G1 X150.62 Y121.132 E5.9647
G1 X150.221 Y122.412 E6.07172
G1 X150.194 Y122.492 E6.07846
G1 X150.08 Y122.792 E6.10408
G1 X149.827 Y123.442 E6.15976
G1 X149.763 Y123.591 E6.1727
G1 X149.171 Y124.875 E6.28556
G1 X149.123 Y124.973 E6.29427
G1 X148.843 Y125.505 E6.34226
G1 X148.428 Y126.239 E6.40957
G1 X147.956 Y126.976 E6.47943
G1 X147.569 Y127.54 E6.53403
G1 X147.141 Y128.126 E6.59196
G1 X146.779 Y128.691 E6.64552
G1 X146.487 Y129.309 E6.70008
G1 X146.277 Y129.958 E6.75453
G1 X146.154 Y130.588 E6.80577
G1 X146.062 Y131.289 E6.86221
G1 X146.048 Y131.381 E6.86964
G1 X145.937 Y132.024 E6.92172
G1 X145.906 Y132.172 E6.93379
G1 X145.576 Y133.565 E7.04807
G1 X145.55 Y133.664 E7.05624
G1 X145.377 Y134.253 E7.10524
G1 X145.089 Y135.127 E7.1787
G1 X144.812 Y135.837 E7.23953
G1 X144.57 Y136.408 E7.28904
G1 X144.53 Y136.5 E7.29704
G1 X144.193 Y137.232 E7.36137
G1 X144.149 Y137.323 E7.36944
G1 X143.793 Y137.99 E7.42979
G1 X143.485 Y138.537 E7.4799
G1 X143.314 Y138.829 E7.50691
G1 X143.247 Y138.937 E7.51706
G1 X142.608 Y139.901 E7.60938
G1 X142.511 Y140.042 E7.62304
G1 X142.133 Y140.56 E7.67423
G1 X141.886 Y140.887 E7.70694
G1 X141.153 Y141.757 E7.79775
G1 X140.736 Y142.216 E7.84725
G1 X140.651 Y142.305 E7.85708
G1 X139.632 Y143.309 E7.97127
G1 X139.448 Y143.476 E7.9911
G1 X138.895 Y143.952 E8.04935
G1 X138.362 Y144.388 E8.10431
G1 X138.225 Y144.492 E8.11804
G1 X137.655 Y144.906 E8.17428
G1 X137.54 Y144.989 E8.1856
G1 X136.957 Y145.385 E8.24186
G1 X136.881 Y145.433 E8.24903
G1 X135.601 Y146.194 E8.3679
G1 X134.98 Y146.521 E8.42393
G1 X134.685 Y146.668 E8.45023
G1 X133.526 Y147.182 E8.55144
G1 X133.428 Y147.223 E8.55992
G1 X132.604 Y147.541 E8.63042
G1 X132.509 Y147.573 E8.63843
G1 X131.239 Y147.969 E8.74462
G1 X130.693 Y148.112 E8.78967
G1 X130.581 Y148.139 E8.79887
G1 X129.489 Y148.38 E8.88813
G1 X129.022 Y148.456 E8.9259
G1 X128.374 Y148.55 E8.97817
G1 X127.606 Y148.641 E9.0399
G1 X127.488 Y148.651 E9.04936
G1 X126.706 Y148.698 E9.11189
G1 X125.978 Y148.721 E9.17003
G1 X125.57 Y148.727 E9.2026
G1 X125.477 Y148.725 E9.21003
G1 X124.294 Y148.673 E9.30455
G1 X123.643 Y148.619 E9.3567
G1 X122.308 Y148.442 E9.4642
G1 X122.012 Y148.388 E9.48821
G1 X121.364 Y148.257 E9.54099
G1 X121.259 Y148.235 E9.54955
G1 X120.321 Y148.01 E9.62655
G1 X119.632 Y147.803 E9.68398
G1 X119.018 Y147.603 E9.73552
G1 X118.57 Y147.449 E9.77334
G1 X117.533 Y147.027 E9.86271
G1 X116.923 Y146.751 E9.91615
G1 X116.832 Y146.708 E9.92419
G1 X115.951 Y146.268 E10.0028
G1 X115.874 Y146.226 E10.0098
G1 X115.338 Y145.917 E10.05918
G1 X114.784 Y145.583 E10.11082
G1 X114.255 Y145.247 E10.16085
G1 X114.17 Y145.188 E10.16911
G1 X113.407 Y144.64 E10.24409
G1 X112.877 Y144.232 E10.29748
G1 X112.131 Y143.614 E10.37481
G1 X112.018 Y143.514 E10.38686
G1 X111.404 Y142.934 E10.45428
G1 X111.093 Y142.63 E10.48899
G1 X110.339 Y141.835 E10.57646
G1 X109.956 Y141.414 E10.62189
G1 X109.796 Y141.282 E10.63845
G1 X109.258 Y140.862 E10.69293
G1 X108.67 Y140.514 E10.74747
G1 X108.044 Y140.242 E10.80195
G1 X107.388 Y140.052 E10.85647
G1 X106.711 Y139.945 E10.91118
G1 X105.851 Y139.935 E10.97983
G1 X104.555 Y139.995 E11.0834
G1 X104.439 Y139.998 E11.09266
G1 X103.917 Y139.998 E11.13433
G1 X103.801 Y139.995 E11.14359
G1 X102.544 Y139.938 E11.24403
G1 X102.167 Y139.902 E11.27426
G1 X101.51 Y139.827 E11.32705
G1 X100.727 Y139.716 E11.39018
G1 X99.832 Y139.536 E11.46305
G1 X99.164 Y139.381 E11.51779
G1 X98.225 Y139.127 E11.59544
G1 X98.117 Y139.095 E11.60443
G1 X97.539 Y138.901 E11.6531
G1 X96.908 Y138.675 E11.7066
G1 X96.433 Y138.495 E11.74715
G1 X96.373 Y138.47 E11.75234
G1 X95.432 Y138.051 E11.83456
G1 X95.33 Y138.003 E11.84356
G1 X94.777 Y137.73 E11.89279
G1 X93.887 Y137.25 E11.97351
G1 X93.769 Y137.181 E11.98442
G1 X93.389 Y136.943 E12.02021
G1 X93.239 Y136.853 E12.03417
G1 X92.863 Y136.612 E12.06982
G1 X92.738 Y136.528 E12.08184
G1 X91.667 Y135.769 E12.18663
G1 X91.4 Y135.556 E12.21389
G1 X90.864 Y135.117 E12.2692
G1 X90.408 Y134.728 E12.31704
G1 X89.655 Y134.006 E12.40032
G1 X89.559 Y133.91 E12.41115
G1 X89.266 Y133.608 E12.44474
G1 X89.147 Y133.474 E12.45905
G1 X88.639 Y132.928 E12.51858
G1 X88.544 Y132.818 E12.53018
G1 X88.068 Y132.236 E12.5902
G1 X87.655 Y131.698 E12.64434
G1 X87.099 Y130.92 E12.72067
G1 X87.004 Y130.779 E12.73424
G1 X86.669 Y130.247 E12.78443
G1 X86.363 Y129.738 E12.83183
G1 X85.869 Y128.843 E12.91344
G1 X85.809 Y128.726 E12.92393
G1 X85.542 Y128.168 E12.97331
G1 X85.335 Y127.713 E13.01321
G1 X85.277 Y127.581 E13.02472
G1 X84.853 Y126.536 E13.11474
G1 X84.695 Y126.077 E13.15349
G1 X84.488 Y125.438 E13.20711
G1 X84.298 Y124.802 E13.2601
G1 X84.073 Y123.864 E13.33709
G1 X83.928 Y123.153 E13.39502
G1 X83.881 Y122.905 E13.41517
G1 X83.867 Y122.817 E13.42228
G1 X83.689 Y121.48 E13.52995
G1 X83.635 Y120.829 E13.58209
G1 X83.583 Y119.646 E13.67661
G1 X83.581 Y119.548 E13.68444
G1 X83.587 Y119.145 E13.71661
G1 X83.61 Y118.403 E13.77587
G1 X83.657 Y117.636 E13.83721
G1 X83.668 Y117.505 E13.8477
G1 X83.758 Y116.756 E13.90792
G1 X83.848 Y116.133 E13.95817
G1 X83.922 Y115.67 E13.9956
G1 X83.951 Y115.526 E14.00732
G1 X84.163 Y114.573 E14.08525
G1 X84.201 Y114.416 E14.09815
G1 X84.371 Y113.773 E14.15124
G1 X84.406 Y113.656 E14.16099
G1 X84.848 Y112.315 E14.2737
G1 X84.896 Y112.18 E14.28513
G1 X85.137 Y111.561 E14.33816
G1 X85.187 Y111.443 E14.34839
G1 X85.785 Y110.152 E14.46196
G1 X85.856 Y110.01 E14.47463
G1 X86.094 Y109.557 E14.51548
G1 X86.485 Y108.864 E14.579
G1 X86.545 Y108.762 E14.58844
G1 X87.007 Y108.04 E14.65686
G1 X87.304 Y107.605 E14.69891
G1 X87.393 Y107.479 E14.71122
G1 X87.978 Y106.688 E14.78976
G1 X88.057 Y106.588 E14.79993
G1 X88.466 Y106.099 E14.85082
G1 X88.76 Y105.759 E14.8867
G1 X88.848 Y105.661 E14.89721
G1 X89.55 Y104.902 E14.97974
G1 X90.045 Y104.431 E15.03428
G1 X90.461 Y104.05 E15.07931
G1 X90.551 Y103.97 E15.08892
G1 X91.414 Y103.242 E15.17905
G1 X91.8 Y102.952 E15.21759
G1 X92.266 Y102.611 E15.26368
G1 X92.386 Y102.529 E15.27528
G1 X93.735 Y101.637 E15.40438
G1 X93.93 Y101.478 E15.42446
G1 X94.431 Y101.014 E15.47897
G1 X94.87 Y100.491 E15.53348
G1 X95.239 Y99.917 E15.58795
G1 X95.532 Y99.301 E15.6424
G1 X95.73 Y98.707 E15.69238
G1 X95.853 Y98.249 E15.73023
G1 X95.888 Y98.135 E15.73975
G1 X96.085 Y97.548 E15.78918
G1 X96.295 Y96.96 E15.83902
G1 X96.473 Y96.49 E15.87914
G1 X96.508 Y96.407 E15.88633
G1 X96.949 Y95.415 E15.97298
G1 X97.264 Y94.777 E16.02978
G1 X97.82 Y93.758 E16.12244
G1 X97.855 Y93.697 E16.12806
G1 X98.069 Y93.352 E16.16046
G1 X98.383 Y92.862 E16.20692
G1 X98.453 Y92.759 E16.21686
G1 X99.213 Y91.686 E16.32182
G1 X99.388 Y91.468 E16.34413
G1 X99.827 Y90.929 E16.39963
G1 X100.215 Y90.47 E16.4476
G0 F9000 X100.8 Y89.857
G1 F1125 X100.8 Y139.726 E20.42836
G0 F9000 X102.4 Y139.924
G1 F1125 X102.4 Y88.371 E24.54354
G0 F9000 X104 Y87.161
G1 F1125 X104 Y139.998 E28.76122
G0 F9000 X105.6 Y139.947
G1 F1125 X105.6 Y86.184 E33.05282
G0 F9000 X107.2 Y85.385
G1 F1125 X107.2 Y140.022 E37.41418
G0 F9000 X108.8 Y140.59
G1 F1125 X108.8 Y84.748 E41.87173
G0 F9000 X110.4 Y84.264
G1 F1125 X110.4 Y141.899 E46.4724
G0 F9000 X112 Y143.496
G1 F1125 X112 Y83.916 E51.22834
G0 F9000 X113.6 Y83.7
G1 F1125 X113.6 Y144.778 E56.10385
G0 F9000 X115.2 Y145.833
G1 F1125 X115.2 Y83.606 E61.07107
G0 F9000 X116.8 Y83.641
G1 F1125 X116.8 Y146.692 E66.10408
G0 F9000 X118.4 Y147.379
G1 F1125 X118.4 Y83.801 E71.17915
G0 F9000 X120 Y84.09
G1 F1125 X120 Y147.913 E76.27378
G0 F9000 X121.6 Y148.304
G1 F1125 X121.6 Y84.513 E81.36585
G0 F9000 X123.2 Y85.07
G1 F1125 X123.2 Y148.56 E86.4339
G0 F9000 X124.8 Y148.695
G1 F1125 X124.8 Y85.789 E91.45533
G0 F9000 X126.4 Y86.677
G1 F1125 X126.4 Y148.708 E96.40691
G0 F9000 X128 Y148.595
G1 F1125 X128 Y87.773 E101.26198
G0 F9000 X129.6 Y89.124
G1 F1125 X129.6 Y148.356 E105.99014
G0 F9000 X131.2 Y147.98
G1 F1125 X131.2 Y90.791 E110.55521
G0 F9000 X132.8 Y92.926
G1 F1125 X132.8 Y147.466 E114.90883
G0 F9000 X134.4 Y146.795
G1 F1125 X134.4 Y94.822 E119.05754
G0 F9000 X136 Y95.686
G1 F1125 X136 Y145.957 E123.07039
G0 F9000 X137.6 Y144.946
G1 F1125 X137.6 Y96.191 E126.96222
G0 F9000 X139.2 Y96.832
G1 F1125 X139.2 Y143.69 E130.70263
G0 F9000 X140.8 Y142.146
G1 F1125 X140.8 Y97.637 E134.25553
G0 F9000 X142.4 Y98.626
G1 F1125 X142.4 Y140.195 E137.57375
G0 F9000 X144 Y137.603
G1 F1125 X144 Y99.834 E140.58863
G0 F9000 X145.6 Y101.325
G1 F1125 X145.6 Y133.464 E143.15411
G1 F1500 E136.65411
G0 F9000 X146.636 Y133.709
G0 X148.013 Y128.737
G0 X147.2 Y128.046
G1 F1500 E143.15411
G1 F1125 X147.2 Y103.196 E145.13774
G0 F9000 X148.8 Y105.666
G1 F1125 X148.8 Y125.582 E146.72752
G0 F9000 X150.4 Y121.838
G1 F1125 X150.4 Y109.376 E147.72229
G1 F1500 E141.22229
G0 F9000 X151.341 Y108.851
G0 X150.589 Y106.87
G0 X149.518 Y104.763
G0 X148.708 Y103.446
G0 X147.046 Y101.311
G0 X145.234 Y99.483
G0 X143.843 Y98.342
G0 X127.541 Y86.143
G0 X125.978 Y85.199
G0 X123.758 Y84.144
G0 X121.377 Y83.329
G0 X118.989 Y82.81
G0 X117.341 Y82.604
G0 X115.176 Y82.553
G0 X113.288 Y82.661
G0 X110.864 Y83.06
G0 X108.582 Y83.698
G0 X106.243 Y84.652
G0 X103.979 Y85.906
G0 X102.024 Y87.302
G0 X100.308 Y88.836
G0 X99.571 Y89.638
G0 X98.557 Y90.801
G0 X99.2 Y91.704
G1 F1500 E147.72229
G1 F1125 X99.2 Y139.389 E151.52872
G0 F9000 X97.6 Y138.921
G1 F1125 X97.6 Y94.161 E155.10165
G0 F9000 X96 Y97.801
G1 F1125 X96 Y138.303 E158.3347
G0 F9000 X94.4 Y137.526
G1 F1125 X94.4 Y101.042 E161.24701
G0 F9000 X92.8 Y102.255
G1 F1125 X92.8 Y136.569 E163.9861
G0 F9000 X91.2 Y135.392
G1 F1125 X91.2 Y103.422 E166.53808
G0 F9000 X89.6 Y104.854
G1 F1125 X89.6 Y133.951 E168.86073
G0 F9000 X88 Y132.147
G1 F1125 X88 Y106.66 E170.89522
G0 F9000 X86.4 Y109.014
G1 F1125 X86.4 Y129.799 E172.55436
G0 F9000 X84.8 Y126.382
G1 F1125 X84.8 Y112.46 E173.66568
G1 F1500 E167.16568
G0 F300 X84.8 Y112.46 Z0.54
G0 F9000 X83.789 Y112.128
G0 X83.127 Y114.327
G0 X82.704 Y116.609
G0 X82.542 Y118.479
G0 X82.572 Y120.885
G0 X82.884 Y123.359
G0 X83.481 Y125.786
G0 X84.299 Y127.999
G0 X84.933 Y129.349
G0 X86.122 Y131.364
G0 X86.273 Y131.571
G0 X87.148 Y130.988
;TIME_ELAPSED:129.092772
;LAYER:-5
;TYPE:SUPPORT
G1 F1500 E173.66568
G1 F1125 X92.562 Y136.403 E174.42972
G1 X91.667 Y135.768 E174.53922
G1 X91.399 Y135.555 E174.57338
G1 X90.863 Y135.116 E174.64251
G1 X90.408 Y134.727 E174.70224
G1 X89.655 Y134.005 E174.80633
G1 X89.559 Y133.909 E174.81988
G1 X89.265 Y133.607 E174.86193
G1 X89.147 Y133.472 E174.87982
G1 X88.638 Y132.927 E174.95423
G1 X88.543 Y132.817 E174.96874
G1 X88.068 Y132.235 E175.04369
G1 X87.654 Y131.697 E175.11143
G1 F1500 E168.61143
G0 F9000 X86.831 Y132.374
G0 X87.852 Y133.644
G0 X89.721 Y135.54
G0 X90.505 Y136.184
G0 X91.946 Y137.273
G0 X92.562 Y136.403
G1 F1500 E175.11143
G1 F1125 X92.737 Y136.527 E175.13283
G1 X92.862 Y136.611 E175.14786
G1 X93.239 Y136.852 E175.1925
G1 X93.389 Y136.942 E175.20996
G1 X93.769 Y137.18 E175.2547
G1 X93.886 Y137.249 E175.26825
G1 X94.777 Y137.729 E175.36924
G1 X95.33 Y138.002 E175.43077
G1 X95.431 Y138.05 E175.44193
G1 X95.778 Y138.204 E175.47981
G1 X85.376 Y127.802 E176.94765
G1 X85.335 Y127.711 E176.9576
G1 X85.277 Y127.58 E176.9719
G1 X84.852 Y126.535 E177.08446
G1 X84.695 Y126.076 E177.13287
G1 X84.517 Y125.529 E177.19027
G1 X98.063 Y139.075 E179.10175
G1 X98.117 Y139.094 E179.10746
G1 X98.224 Y139.126 E179.11861
G1 X99.163 Y139.379 E179.21564
G1 X99.832 Y139.534 E179.28416
G1 X99.962 Y139.56 E179.29739
G1 X84.023 Y123.621 E181.54656
G1 X83.927 Y123.152 E181.59432
G1 X83.88 Y122.904 E181.61951
G1 X83.867 Y122.815 E181.62849
G1 X83.749 Y121.932 E181.71737
G1 X101.659 Y139.843 E184.24474
G1 X102.167 Y139.901 E184.29576
G1 X102.543 Y139.937 E184.33345
